img/neovim.svg

<?xml version='1.0' encoding='UTF-8'?>
<svg xmlns="http://www.w3.org/2000/svg" xmlns:xlink="http://www.w3.org/1999/xlink" width="32" height="32" viewBox="-7.38 -7.38 370.18 162.37" version="1.1" preserveAspectRatio="xMidYMid">
    <defs>
        <linearGradient x1="50%" y1="0%" x2="50%" y2="100%" id="linearGradient-1">
            <stop stop-color="#16B0ED" stop-opacity="0.800235524" offset="0%">

</stop>
            <stop stop-color="#0F59B2" stop-opacity="0.83700023" offset="100%">

</stop>
        </linearGradient>
        <linearGradient x1="50%" y1="0%" x2="50%" y2="100%" id="linearGradient-2">
            <stop stop-color="#7DB643" offset="0%">

</stop>
            <stop stop-color="#367533" offset="100%">

</stop>
        </linearGradient>
        <linearGradient x1="50%" y1="0%" x2="50%" y2="100%" id="linearGradient-3">
            <stop stop-color="#88C649" stop-opacity="0.8" offset="0%">

</stop>
            <stop stop-color="#439240" stop-opacity="0.84" offset="100%">

</stop>
        </linearGradient>
    </defs>
	<g>
		<g>
			<g>
				<path d="M0.0188037914,32.1877871 L31.3322156,0.572985361 L31.332215,147.571242 L0.0188037914,116.321577 L0.0188037914,32.1877871 L0.0188037914,32.1877871 Z" fill="url(#linearGradient-1)">

</path>
				<path d="M89.4837594,32.4862691 L121.226122,0.590059535 L120.582695,147.571242 L89.269284,116.321577 L89.4837594,32.4862691 L89.4837594,32.4862691 Z" fill="url(#linearGradient-2)" transform="translate(105.247703, 74.080651) scale(-1, 1) translate(-105.247703, -74.080651) ">

</path>
				<path d="M31.3113362,0.598133687 L112.722926,124.829189 L89.9415068,147.610037 L8.48731391,23.6539656 L31.3113362,0.598133687 L31.3113362,0.598133687 Z" fill="url(#linearGradient-3)">

</path>
				<path d="M31.3393522,58.2198072 L31.2960504,63.112906 L6.15984438,26.0032984 L8.48731391,23.6323156 L31.3393522,58.2198072 L31.3393522,58.2198072 Z" fill-opacity="0.13" fill="#000000">

</path>
			</g>
			<g transform="translate(156.579161, 20.784844)" fill="#444444">
				<g>
					<g transform="translate(0.000000, 20.092016)">
						<path d="M0,65.8186739 L0,3.76909476 L3.22492897,3.76909476 C4.29907838,3.76909476 4.91925703,4.28918872 5.08546491,5.32812941 L5.64362569,14.6823373 C8.45551566,11.1077827 11.7312993,8.22793388 15.4734573,6.04528535 C19.2143749,3.86263684 23.380735,2.77131258 27.970057,2.77131258 C31.3599535,2.77131258 34.3479742,3.31260942 36.9316385,4.39270862 C39.5153027,5.47405505 41.654919,7.03308973 43.3504875,9.06981257 C45.0460559,11.1077827 46.327345,13.5598324 47.1955951,16.4284561 C48.0638452,19.2970799 48.4979702,22.539872 48.4979702,26.1568324 L48.4979702,65.8186739 L42.6062731,65.8186739 L42.6062731,26.1568324 C42.6062731,20.3360206 41.2828118,15.7736616 38.6371297,12.4685081 C35.9902073,9.16335462 31.9392003,7.5107779 26.4816283,7.5107779 C22.4281406,7.5107779 18.6673773,8.56094367 15.1943769,10.6600279 C11.7213765,12.7603594 8.62048317,15.6389609 5.89169715,19.2970799 L5.89169715,65.8186739 L0,65.8186739 L0,65.8186739 Z">

</path>
						<path d="M85.6500551,2.77131258 C89.1603839,2.77131258 92.408692,3.37261164 95.3974869,4.57645467 C98.3850276,5.7802977 100.976403,7.53315293 103.170359,9.83626521 C105.364314,12.1393776 107.076854,14.9715832 108.310484,18.3328823 C109.54286,21.6941813 110.159675,25.5534506 110.159675,29.9106901 C110.159675,30.8232206 110.024277,31.4456834 109.752226,31.7780785 C109.480176,32.1104736 109.052667,32.2760487 108.469702,32.2760487 L63.459759,32.2760487 L63.459759,33.458728 C63.459759,38.1060352 64.0026064,42.1943708 65.0895547,45.7212449 C66.1752495,49.2481191 67.7223017,52.2048173 69.728204,54.5913397 C71.7341064,56.9778619 74.1574876,58.7717997 76.9996003,59.9756427 C79.8404597,61.1794858 83.0173081,61.7807848 86.527637,61.7807848 C89.6618599,61.7807848 92.3786039,61.4384303 94.6766158,60.7537212 C96.9746277,60.0690122 98.9078164,59.3008931 100.474928,58.4506089 C102.042039,57.6003247 103.285698,56.8322057 104.204652,56.1474966 C105.123607,55.4627876 105.793077,55.120433 106.210555,55.120433 C106.753402,55.120433 107.172134,55.3283356 107.464244,55.7428958 L109.09404,57.7347767 C108.091089,58.9797023 106.764686,60.1424628 105.113577,61.2205683 C103.462469,62.2999188 101.623306,63.2236536 99.5973453,63.9905277 C97.5701301,64.7586468 95.3974869,65.3699053 93.0781622,65.8267929 C90.7588375,66.2824357 88.4294835,66.511502 86.088846,66.511502 C81.8263033,66.511502 77.9398672,65.7745061 74.4295377,64.3017592 C70.9192089,62.8290122 67.9065939,60.6815156 65.3929475,57.8592693 C62.8780473,55.037023 60.9348293,51.5823545 59.5632935,47.4952639 C58.190504,43.4081732 57.5047361,38.728498 57.5047361,33.458728 C57.5047361,29.0193234 58.1416102,24.9210284 59.4166119,21.1650879 C60.6916136,17.4091475 62.5295217,14.172341 64.9328436,11.4546685 C67.3349118,8.73699594 70.2810809,6.61066306 73.7713509,5.0744249 C77.2591143,3.53943167 81.2195175,2.77131258 85.6500551,2.77131258 L85.6500551,2.77131258 L85.6500551,2.77131258 Z M86.0469285,6.92828146 C82.7937041,6.92828146 79.8781135,7.41447666 77.3014274,8.38686706 C74.7234721,9.35925739 72.4958446,10.7570686 70.6160065,12.5803005 C68.7361679,14.4035325 67.2155424,16.5914109 66.0528604,19.1439356 C64.8901784,21.6964604 64.1209805,24.5528571 63.7401894,27.7131258 L105.309878,27.7131258 C105.309878,24.4714194 104.844044,21.5651877 103.914914,18.9919996 C102.984514,16.4200271 101.675862,14.2418726 99.9864195,12.4587517 C98.2969768,10.6768464 96.2686296,9.3094224 93.9026478,8.35647983 C91.5379352,7.40475275 88.9193622,6.92828146 86.0469285,6.92828146 L86.0469285,6.92828146 L86.0469285,6.92828146 Z">

</path>
						<path d="M144.486369,2.77131258 C149.00813,2.77131258 153.055653,3.52822733 156.627667,5.04330176 C160.198413,6.55837618 163.209961,8.70587278 165.662314,11.4857916 C168.113398,14.2657104 169.983728,17.6170501 171.273305,21.5385656 C172.562882,25.4600812 173.207037,29.8484439 173.207037,34.7036536 C173.207037,39.5588633 172.561614,43.9372666 171.273305,47.8376184 C169.983728,51.7392152 168.113398,55.0793505 165.662314,57.8592693 C163.209961,60.6391881 160.198413,62.7767253 156.627667,64.270636 C153.055653,65.7645467 149.00813,66.511502 144.486369,66.511502 C139.963339,66.511502 135.917086,65.7645467 132.345071,64.270636 C128.773057,62.7767253 125.751364,60.6391881 123.278724,57.8592693 C120.806083,55.0793505 118.924341,51.7379702 117.636032,47.8376184 C116.346455,43.9372666 115.7023,39.5588634 115.7023,34.7036536 C115.7023,29.8484438 116.346455,25.4600812 117.636032,21.5385656 C118.925609,17.6170501 120.806083,14.2669553 123.278724,11.4857916 C125.751364,8.70587278 128.773057,6.55837618 132.345071,5.04330176 C135.917086,3.52947226 139.963339,2.77131258 144.486369,2.77131258 L144.486369,2.77131258 L144.486369,2.77131258 Z M144.139437,62.3545332 C147.840133,62.3545332 151.071849,61.7182728 153.837082,60.4444995 C156.601066,59.1707262 158.908545,57.3446088 160.759516,54.9648947 C162.609241,52.5851807 163.991233,49.7157465 164.906741,46.3540872 C165.819754,42.9936805 166.278755,39.2262174 166.278755,35.0504454 C166.278755,30.9172579 165.821001,27.1598146 164.906741,23.7781156 C163.991233,20.3964167 162.609241,17.5056904 160.759516,15.1046841 C158.909792,12.7049303 156.602314,10.8575207 153.837082,9.5624553 C151.071849,8.26864231 147.838885,7.62110961 144.139437,7.62110961 C140.439988,7.62110961 137.205776,8.26864231 134.441791,9.5624553 C131.676559,10.8575207 129.369081,12.7049303 127.519357,15.1046841 C125.668385,17.5056904 124.276414,20.3964167 123.34095,23.7781156 C122.405485,27.1598146 121.937754,30.9172579 121.937754,35.0504454 C121.937754,39.2249649 122.405485,42.9936805 123.34095,46.3540872 C124.276414,49.7157465 125.668385,52.5851807 127.519357,54.9648947 C129.369081,57.3446088 131.676559,59.1707262 134.441791,60.4444995 C137.205776,61.7182728 140.43874,62.3545332 144.139437,62.3545332 L144.139437,62.3545332 L144.139437,62.3545332 Z">

</path>
						<path d="M210.321687,64.4330176 L196.43045,64.4330176 L171.128552,0.692828146 L183.841515,0.692828146 C184.957775,0.692828146 185.897915,0.962450388 186.663173,1.50045238 C187.427191,2.03969686 187.955554,2.72182872 188.244542,3.55057543 L200.523403,37.5950431 C201.225407,39.5830412 201.815785,41.5300368 202.290815,43.4347875 C202.765846,45.3407807 203.190025,47.2455314 203.562111,49.1502821 C203.934198,47.2455314 204.357137,45.3407807 204.833407,43.4347875 C205.308438,41.5300368 205.91866,39.5830412 206.662834,37.5950431 L219.251768,3.55057543 C219.540756,2.72182872 220.057956,2.03969686 220.80213,1.50045238 C221.546303,0.962450388 222.43435,0.692828146 223.468751,0.692828146 L235.56157,0.692828146 L210.321687,64.4330176 L210.321687,64.4330176 Z">

</path>
						<rect x="239.02571" y="1.38565629" width="15.9350474" height="63.7401894">

</rect>
						<path d="M265.35318,65.1258457 L265.35318,1.00001299 L274.792209,1.00001299 C276.792267,1.00001299 278.103556,1.93752516 278.728575,3.81254951 L279.728605,8.56261117 C280.853638,7.31259497 282.031173,6.16633008 283.259959,5.12506656 C284.488745,4.08380303 285.801284,3.18754139 287.197575,2.43753166 C288.592616,1.68752192 290.09266,1.09376421 291.697708,0.656258523 C293.301505,0.218752841 295.061557,0 296.980364,0 C301.020483,0 304.344331,1.09376421 306.949408,3.28129261 C309.553235,5.46882102 311.502042,8.37510873 312.79333,12.0001558 C313.79336,9.87512822 315.043397,8.05260457 316.543441,6.53133482 C318.043485,5.01131508 319.689784,3.77129897 321.481087,2.81253652 C323.27239,1.85502409 325.178696,1.14626489 327.200006,0.687508928 C329.220066,0.228752971 331.251375,0 333.293936,0 C336.83529,0 339.981633,0.542507045 342.731714,1.6250211 C345.481795,2.70878518 347.794364,4.29130573 349.669419,6.37508279 C351.544475,8.45885987 352.972016,11.0001428 353.950796,14.0001818 C354.929575,17.0002208 355.420839,20.4377654 355.420839,24.3128157 L355.420839,65.1258457 L339.981633,65.1258457 L339.981633,24.3128157 C339.981633,20.2290127 339.085357,17.1564728 337.295304,15.093946 C335.502751,13.0314192 332.877674,12.0001558 329.418821,12.0001558 C327.835024,12.0001558 326.367481,12.2714093 325.013691,12.8126664 C323.658652,13.3551734 322.471116,14.1364336 321.449836,15.1564468 C320.429806,16.1777101 319.627282,17.4589767 319.043515,19.0002468 C318.459748,20.5415168 318.168489,22.3127898 318.168489,24.3128157 L318.168489,65.1258457 L302.669282,65.1258457 L302.669282,24.3128157 C302.669282,20.02151 301.804256,16.8964694 300.075455,14.937694 C298.345404,12.9801686 295.794078,12.0001558 292.418979,12.0001558 C290.208913,12.0001558 288.137603,12.552663 286.200046,13.6564273 C284.261238,14.7601917 282.459935,16.2714613 280.793636,18.1877362 L280.793636,65.1258457 L265.35318,65.1258457 L265.35318,65.1258457 Z">

</path>
					</g>
					<rect x="239.02571" y="0" width="15.9350474" height="13.1637348">

</rect>
				</g>
			</g>
		</g>
	</g>
</svg>

<?xml version="1.0" encoding="UTF-8" standalone="no"?>
<!-- Uploaded to: SVG Repo, www.svgrepo.com, Generator: SVG Repo Mixer Tools -->

<svg
   width="800px"
   height="800px"
   viewBox="0 -182 512 512"
   version="1.1"
   preserveAspectRatio="xMidYMid"
   id="svg18"
   sodipodi:docname="neovim.svg"
   inkscape:version="1.4.2 (f4327f4, 2025-05-13)"
   xmlns:inkscape="http://www.inkscape.org/namespaces/inkscape"
   xmlns:sodipodi="http://sodipodi.sourceforge.net/DTD/sodipodi-0.dtd"
   xmlns="http://www.w3.org/2000/svg"
   xmlns:svg="http://www.w3.org/2000/svg">
  <sodipodi:namedview
     id="namedview18"
     pagecolor="#ffffff"
     bordercolor="#000000"
     borderopacity="0.25"
     inkscape:showpageshadow="2"
     inkscape:pageopacity="0.0"
     inkscape:pagecheckerboard="0"
     inkscape:deskcolor="#d1d1d1"
     inkscape:zoom="0.2521875"
     inkscape:cx="132.83767"
     inkscape:cy="49.566295"
     inkscape:window-width="1920"
     inkscape:window-height="1009"
     inkscape:window-x="-8"
     inkscape:window-y="-8"
     inkscape:window-maximized="1"
     inkscape:current-layer="svg18" />
  <defs
     id="defs6">
    <linearGradient
       x1="33.96351"
       y1="0.26445552"
       x2="33.96351"
       y2="68.109993"
       id="linearGradient-1"
       gradientTransform="scale(0.46153974,2.1666607)"
       gradientUnits="userSpaceOnUse">
      <stop
         stop-color="#16B0ED"
         stop-opacity="0.800235524"
         offset="0%"
         id="stop1" />
      <stop
         stop-color="#0F59B2"
         stop-opacity="0.83700023"
         offset="100%"
         id="stop2" />
    </linearGradient>
    <linearGradient
       x1="225.71561"
       y1="0.27513565"
       x2="225.71561"
       y2="68.810191"
       id="linearGradient-2"
       gradientTransform="scale(0.46628456,2.1446132)"
       gradientUnits="userSpaceOnUse">
      <stop
         stop-color="#7DB643"
         offset="0%"
         id="stop3" />
      <stop
         stop-color="#367533"
         offset="100%"
         id="stop4" />
    </linearGradient>
    <linearGradient
       x1="71.974309"
       y1="0.50365143"
       x2="71.974309"
       y2="124.29329"
       id="linearGradient-3"
       gradientTransform="scale(0.84203823,1.1875945)"
       gradientUnits="userSpaceOnUse">
      <stop
         stop-color="#88C649"
         stop-opacity="0.8"
         offset="0%"
         id="stop5" />
      <stop
         stop-color="#439240"
         stop-opacity="0.84"
         offset="100%"
         id="stop6" />
    </linearGradient>
  </defs>
  <g
     id="g18"
     transform="matrix(3.2665021,0,0,3.2665021,64.671127,-166.2553)">
    <g
       id="g17">
      <g
         id="g9">
        <path
           d="M 0.01880379,32.187787 31.332216,0.57298536 31.332215,147.57124 0.01880379,116.32158 Z"
           fill="url(#linearGradient-1)"
           id="path6"
           style="fill:url(#linearGradient-1)" />
        <path
           d="M 89.483759,32.486269 121.22612,0.59005953 120.5827,147.57124 89.269284,116.32158 Z"
           fill="url(#linearGradient-2)"
           transform="matrix(-1,0,0,1,210.49541,0)"
           id="path7"
           style="fill:url(#linearGradient-2)" />
        <path
           d="M 31.311336,0.59813369 112.72293,124.82919 89.941507,147.61004 8.4873139,23.653966 Z"
           fill="url(#linearGradient-3)"
           id="path8"
           style="fill:url(#linearGradient-3)" />
        <path
           d="M 31.339352,58.219807 31.29605,63.112906 6.1598444,26.003298 8.4873139,23.632316 Z"
           fill-opacity="0.13"
           fill="#000000"
           id="path9" />
      </g>
      <g
         transform="translate(156.57916,20.784844)"
         fill="#444444"
         id="g16">
        <g
           id="g15">
          <g
             transform="translate(0,20.092016)"
             id="g14">
            <path
               d="M 0,65.818674 V 3.7690948 h 3.224929 c 1.0741494,0 1.694328,0.5200939 1.8605359,1.5590346 l 0.5581608,9.3542076 c 2.81189,-3.574554 6.0876733,-6.4544031 9.8298313,-8.6370516 3.740918,-2.1826486 7.907278,-3.2739728 12.4966,-3.2739728 3.389896,0 6.377917,0.5412968 8.961581,1.621396 2.583665,1.0813464 4.723281,2.6403811 6.418849,4.677104 1.695569,2.0379704 2.976858,4.4900194 3.845108,7.3586434 0.86825,2.868624 1.302375,6.111416 1.302375,9.728376 V 65.818674 H 42.606273 V 26.156832 c 0,-5.820811 -1.323461,-10.38317 -3.969143,-13.688324 C 35.990207,9.1633546 31.9392,7.5107779 26.481628,7.5107779 c -4.053487,0 -7.814251,1.0501658 -11.287251,3.1492501 -3.473,2.100331 -6.5738938,4.978933 -9.3026799,8.637052 v 46.521594 z"
               id="path10" />
            <path
               d="m 85.650055,2.7713126 c 3.510329,0 6.758637,0.601299 9.747432,1.8051421 2.987541,1.203843 5.578913,2.9566982 7.772873,5.2598105 2.19395,2.3031128 3.90649,5.1353178 5.14012,8.4966168 1.23238,3.361299 1.84919,7.220569 1.84919,11.577808 0,0.912531 -0.13539,1.534993 -0.40744,1.867388 -0.27205,0.332396 -0.69956,0.497971 -1.28253,0.497971 H 63.459759 v 1.182679 c 0,4.647307 0.542847,8.735643 1.629796,12.262517 1.085695,3.526874 2.632747,6.483572 4.638649,8.870095 2.005902,2.386522 4.429284,4.18046 7.271396,5.384303 2.84086,1.203843 6.017708,1.805142 9.528037,1.805142 3.134223,0 5.850967,-0.342355 8.148979,-1.027064 2.298012,-0.684709 4.2312,-1.452828 5.798314,-2.303112 1.56711,-0.850284 2.81077,-1.618403 3.72972,-2.303112 0.91896,-0.684709 1.58843,-1.027064 2.00591,-1.027064 0.54284,0 0.96157,0.207903 1.25368,0.622463 l 1.6298,1.991881 c -1.00295,1.244925 -2.32935,2.407686 -3.98046,3.485791 -1.65111,1.079351 -3.49027,2.003086 -5.516235,2.76996 -2.027215,0.768119 -4.199858,1.379377 -6.519183,1.836265 -2.319325,0.455643 -4.648678,0.684709 -6.989316,0.684709 -4.262543,0 -8.148979,-0.736996 -11.659308,-2.209743 -3.510329,-1.472747 -6.522944,-3.620243 -9.03659,-6.44249 -2.514901,-2.822246 -4.458119,-6.276915 -5.829655,-10.364005 -1.372789,-4.087091 -2.058557,-8.766766 -2.058557,-14.036536 0,-4.439405 0.636874,-8.5377 1.911876,-12.29364 1.275002,-3.755941 3.11291,-6.992747 5.516232,-9.710419 2.402068,-2.7176731 5.348237,-4.8440059 8.838507,-6.3802441 3.487763,-1.5349932 7.448166,-2.3031123 11.878704,-2.3031123 z m 0.396874,4.1569689 c -3.253225,0 -6.168816,0.4861952 -8.745502,1.4585856 -2.577955,0.9723903 -4.805582,2.3702019 -6.685421,4.1934339 -1.879838,1.823232 -3.400464,4.01111 -4.563146,6.563635 -1.162682,2.552524 -1.931879,5.408921 -2.312671,8.56919 h 41.569691 c 0,-3.241707 -0.46584,-6.147938 -1.39497,-8.721126 -0.9304,-2.571973 -2.23905,-4.750127 -3.928491,-6.533248 C 98.296977,10.676846 96.26863,9.3094224 93.902648,8.3564798 91.537935,7.4047527 88.919362,6.9282815 86.046929,6.9282815 Z"
               id="path11" />
            <path
               d="m 144.48637,2.7713126 c 4.52176,0 8.56928,0.7569147 12.1413,2.2719892 3.57074,1.5150744 6.58229,3.662571 9.03464,6.4424902 2.45109,2.779918 4.32142,6.131258 5.61099,10.052774 1.28958,3.921515 1.93374,8.309878 1.93374,13.165088 0,4.855209 -0.64543,9.233613 -1.93374,13.133964 -1.28957,3.901597 -3.1599,7.241732 -5.61099,10.021651 -2.45235,2.779919 -5.4639,4.917456 -9.03464,6.411367 -3.57202,1.493911 -7.61954,2.240866 -12.1413,2.240866 -4.52303,0 -8.56928,-0.746955 -12.1413,-2.240866 -3.57201,-1.493911 -6.59371,-3.631448 -9.06635,-6.411367 -2.47264,-2.779919 -4.35438,-6.121299 -5.64269,-10.021651 -1.28957,-3.900351 -1.93373,-8.278755 -1.93373,-13.133964 0,-4.85521 0.64416,-9.243573 1.93373,-13.165088 1.28958,-3.921516 3.17005,-7.271611 5.64269,-10.052774 2.47264,-2.7799192 5.49434,-4.9274158 9.06635,-6.4424902 3.57202,-1.5138295 7.61827,-2.2719892 12.1413,-2.2719892 z m -0.34693,59.5832204 c 3.70069,0 6.93241,-0.63626 9.69764,-1.910034 2.76399,-1.273773 5.07146,-3.09989 6.92244,-5.479604 1.84972,-2.379714 3.23171,-5.249148 4.14722,-8.610808 0.91301,-3.360406 1.37201,-7.12787 1.37201,-11.303642 0,-4.133187 -0.45775,-7.89063 -1.37201,-11.272329 -0.91551,-3.381699 -2.2975,-6.272426 -4.14722,-8.673432 -1.84973,-2.399754 -4.15721,-4.247163 -6.92244,-5.5422287 -2.76523,-1.293813 -5.9982,-1.9413457 -9.69764,-1.9413457 -3.69945,0 -6.93366,0.6475327 -9.69765,1.9413457 -2.76523,1.2950657 -5.07271,3.1424747 -6.92243,5.5422287 -1.85097,2.401006 -3.24295,5.291733 -4.17841,8.673432 -0.93546,3.381699 -1.4032,7.139142 -1.4032,11.272329 0,4.17452 0.46774,7.943236 1.4032,11.303642 0.93546,3.36166 2.32744,6.231094 4.17841,8.610808 1.84972,2.379714 4.1572,4.205831 6.92243,5.479604 2.76399,1.273774 5.99695,1.910034 9.69765,1.910034 z"
               id="path12" />
            <path
               d="M 210.32169,64.433018 H 196.43045 L 171.12855,0.69282815 h 12.71296 c 1.11626,0 2.0564,0.26962224 2.82166,0.80762425 0.76402,0.5392445 1.29238,1.2213763 1.58137,2.050123 L 200.5234,37.595043 c 0.70201,1.987998 1.29238,3.934994 1.76741,5.839744 0.47504,1.905994 0.89921,3.810744 1.2713,5.715495 0.37209,-1.904751 0.79503,-3.809501 1.2713,-5.715495 0.47503,-1.90475 1.08525,-3.851746 1.82942,-5.839744 L 219.25177,3.5505754 c 0.28899,-0.8287467 0.80619,-1.5108785 1.55036,-2.050123 0.74417,-0.53800201 1.63222,-0.80762425 2.66662,-0.80762425 h 12.09282 z"
               id="path13" />
            <rect
               x="239.02571"
               y="1.3856562"
               width="15.935047"
               height="63.740189"
               id="rect13" />
            <path
               d="M 265.35318,65.125846 V 1.000013 h 9.43903 c 2.00006,0 3.31135,0.9375122 3.93636,2.8125365 l 1.00004,4.7500617 c 1.12503,-1.2500162 2.30256,-2.3962811 3.53135,-3.4375446 1.22878,-1.0412636 2.54132,-1.9375252 3.93761,-2.6875349 1.39505,-0.7500098 2.89509,-1.3437675 4.50014,-1.78127318 C 293.30151,0.21875284 295.06156,0 296.98036,0 c 4.04012,0 7.36397,1.0937642 9.96905,3.2812926 2.60382,2.1875284 4.55263,5.0938161 5.84392,8.7188634 1.00003,-2.1250278 2.25007,-3.9475514 3.75011,-5.4688212 1.50004,-1.5200197 3.14634,-2.7600358 4.93765,-3.7187983 1.7913,-0.9575124 3.69761,-1.6662716 5.71892,-2.12502757 C 329.22007,0.22875297 331.25137,0 333.29394,0 c 3.54135,0 6.68769,0.54250705 9.43777,1.6250211 2.75008,1.0837641 5.06265,2.6662846 6.93771,4.7500617 1.87505,2.0837771 3.3026,4.6250602 4.28138,7.6250992 0.97877,3.000039 1.47004,6.437583 1.47004,10.312634 v 40.81303 h -15.43921 v -40.81303 c 0,-4.083803 -0.89627,-7.156343 -2.68633,-9.21887 -1.79255,-2.062527 -4.41763,-3.09379 -7.87648,-3.09379 -1.5838,0 -3.05134,0.271253 -4.40513,0.81251 -1.35504,0.542507 -2.54257,1.323768 -3.56385,2.343781 -1.02003,1.021263 -1.82256,2.30253 -2.40632,3.8438 -0.58377,1.54127 -0.87503,3.312543 -0.87503,5.312569 v 40.81303 h -15.49921 v -40.81303 c 0,-4.291306 -0.86502,-7.416347 -2.59383,-9.375122 -1.73005,-1.957525 -4.28137,-2.937538 -7.65647,-2.937538 -2.21007,0 -4.28138,0.552507 -6.21893,1.656271 -1.93881,1.103765 -3.74012,2.615034 -5.40641,4.531309 v 46.93811 z"
               id="path14" />
          </g>
          <rect
             x="239.02571"
             y="0"
             width="15.935047"
             height="13.163734"
             id="rect14" />
        </g>
      </g>
    </g>
  </g>
</svg>
